assets/Amphora/Flat/amphora_flat.svg

<svg width="32" height="32" viewBox="0 0 32 32" fill="none" xmlns="http://www.w3.org/2000/svg">
<path d="M8.68024 7.52367C9.13767 6.97046 9.7614 6.75095 10.4298 6.8206C11.1126 6.89175 11.8585 7.27113 12.4674 7.95747C12.4745 7.96551 12.4819 7.97336 12.4894 7.98102L13.7622 9.27465C14.0042 9.5207 14.4 9.52392 14.646 9.28184C14.8921 9.03975 14.8953 8.64404 14.6532 8.39798L13.3914 7.11549C12.6067 6.23653 11.5904 5.68477 10.5593 5.57733C9.50893 5.46787 8.46204 5.82596 7.71691 6.72712C7.10923 7.46204 6.77091 8.2679 6.89557 9.18205C7.0154 10.0608 7.54901 10.9182 8.39067 11.8107C8.39829 11.8188 8.40613 11.8266 8.41417 11.8343L9.74956 13.1071C9.99942 13.3452 10.395 13.3357 10.6332 13.0858C10.8713 12.836 10.8618 12.4404 10.612 12.2022L9.28883 10.9411C8.52429 10.1277 8.20163 9.50833 8.13411 9.01316C8.07108 8.55098 8.21651 8.0845 8.68024 7.52367Z" fill="#7D4533"/>
<path d="M23.3148 7.52367C22.8574 6.97046 22.2336 6.75095 21.5653 6.8206C20.8824 6.89175 20.1366 7.27113 19.5277 7.95747C19.5205 7.96551 19.5132 7.97336 19.5056 7.98102L18.2329 9.27465C17.9908 9.5207 17.5951 9.52392 17.349 9.28184C17.103 9.03975 17.0998 8.64404 17.3418 8.39798L18.6036 7.11549C19.3883 6.23653 20.4047 5.68477 21.4357 5.57733C22.4861 5.46787 23.533 5.82596 24.2781 6.72712C24.8858 7.46204 25.2241 8.2679 25.0995 9.18205C24.9796 10.0608 24.446 10.9182 23.6044 11.8107C23.5967 11.8188 23.5889 11.8266 23.5809 11.8343L22.2455 13.1071C21.9956 13.3452 21.6 13.3357 21.3619 13.0858C21.1237 12.836 21.1332 12.4404 21.3831 12.2022L22.7062 10.9411C23.4707 10.1277 23.7934 9.50833 23.8609 9.01316C23.924 8.55098 23.7785 8.0845 23.3148 7.52367Z" fill="#7D4533"/>
<path d="M13.4548 6.45549C13.1005 4.75467 13 3.99992 13 3.99992L13.0429 3.92505H18.9029L19 3.99992C19 3.99992 18.8995 4.75467 18.5453 6.45549C18.191 8.15631 17.9879 9.16106 19 9.78508L19.1058 9.8502C20.3299 10.6029 22.5103 11.9437 23.2481 14.6249L23.2265 14.6718L23.3672 15.3437L23.4093 15.3749C23.4472 15.6153 23.4739 15.8651 23.4881 16.1249L23.4531 16.164V16.828L23.4969 16.8749C23.4821 17.5246 23.412 18.0494 23.2265 18.6249L23.1758 18.6562L22.9062 19.3241L22.934 19.3749C22.6277 20.0563 22.1659 20.8741 21.4785 22.0332C19.7741 24.907 18.5 27.4999 18.5 27.4999L18.4271 27.5667H13.5601L13.5 27.4999C13.5 27.4999 12.226 24.907 10.5216 22.0332C9.83409 20.8741 9.37232 20.0563 9.06603 19.3749L9.08984 19.3241L8.81641 18.6601L8.77352 18.6249C8.58805 18.0494 8.51798 17.5246 8.50317 16.8749L8.54297 16.8398V16.1757L8.51189 16.1249C8.5261 15.8651 8.55281 15.6153 8.5907 15.3749L8.62891 15.3476L8.77352 14.6601L8.75197 14.6249C9.48972 11.9437 11.6701 10.6029 12.8942 9.8502L13 9.78508C14.0121 9.16106 13.809 8.15631 13.4548 6.45549Z" fill="#B97028"/>
<path d="M12.75 2C12.1977 2 11.75 2.44772 11.75 3C11.75 3.55228 12.1977 4 12.75 4H19.25C19.8023 4 20.25 3.55228 20.25 3C20.25 2.44772 19.8023 2 19.25 2H12.75Z" fill="#8C5543"/>
<path d="M13.5 27.5H18.5L19.5 29C20 29.75 19.5 30 19 30H13C12.5 30 12 29.75 12.5 29L13.5 27.5Z" fill="#8C5543"/>
<path d="M23.248 14.625H21C20.7929 14.625 20.625 14.7929 20.625 15V16.5C20.625 16.7071 20.7929 16.875 21 16.875H23.4968C23.499 16.7805 23.5 16.6834 23.5 16.5831C23.5003 16.4271 23.4963 16.2744 23.4881 16.125H21.375V15.375H23.4093C23.3682 15.114 23.3139 14.8642 23.248 14.625Z" fill="#6D4534"/>
<path d="M23.2265 18.625H19.875V15C19.875 14.7929 19.7071 14.625 19.5 14.625H14C13.7929 14.625 13.625 14.7929 13.625 15V16.5C13.625 16.7071 13.7929 16.875 14 16.875H17.125V18.625H12.875V15C12.875 14.7929 12.7071 14.625 12.5 14.625H8.75196C8.68616 14.8642 8.63183 15.114 8.59068 15.375H12.125V19C12.125 19.2071 12.2929 19.375 12.5 19.375H17.5C17.7071 19.375 17.875 19.2071 17.875 19V16.5C17.875 16.2929 17.7071 16.125 17.5 16.125H14.375V15.375H19.125V19C19.125 19.2071 19.2929 19.375 19.5 19.375H22.934C23.0539 19.1082 23.15 18.8623 23.2265 18.625Z" fill="#6D4534"/>
<path d="M9.06601 19.375H10.5C10.7071 19.375 10.875 19.2071 10.875 19V16.5C10.875 16.2929 10.7071 16.125 10.5 16.125H8.51187C8.5037 16.2744 8.49967 16.4271 8.50002 16.5831C8.50002 16.6834 8.50101 16.7805 8.50316 16.875H10.125V18.625H8.7735C8.84998 18.8623 8.94608 19.1082 9.06601 19.375Z" fill="#6D4534"/>
</svg>

<svg xmlns="http://www.w3.org/2000/svg" width="32" height="32" fill="none"><path fill="#7D4533" d="M8.68 7.524c.458-.554 1.081-.773 1.75-.703.683.07 1.428.45 2.037 1.136a.628.628 0 0 0 .022.024l1.273 1.294a.625.625 0 1 0 .891-.877l-1.262-1.283c-.784-.878-1.8-1.43-2.832-1.538-1.05-.11-2.097.249-2.842 1.15-.608.735-.946 1.54-.821 2.455.12.879.653 1.736 1.495 2.629a.638.638 0 0 0 .023.023l1.336 1.273a.625.625 0 0 0 .862-.905l-1.323-1.26c-.765-.814-1.087-1.434-1.155-1.929-.063-.462.083-.928.546-1.49ZM23.315 7.524c-.458-.554-1.081-.773-1.75-.703-.683.07-1.428.45-2.037 1.136a.63.63 0 0 1-.022.024l-1.273 1.294a.625.625 0 0 1-.891-.877l1.262-1.283c.784-.878 1.8-1.43 2.832-1.538 1.05-.11 2.097.249 2.842 1.15.608.735.946 1.54.822 2.455-.12.879-.654 1.736-1.496 2.629a.747.747 0 0 1-.023.023l-1.335 1.273a.625.625 0 0 1-.863-.905l1.323-1.26c.765-.814 1.087-1.434 1.155-1.929.063-.462-.082-.928-.546-1.49Z"/><path fill="#B97028" d="M13.455 6.455C13.1 4.755 13 4 13 4l.043-.075h5.86L19 4s-.1.755-.455 2.455c-.354 1.701-.557 2.706.455 3.33l.106.065c1.224.753 3.404 2.094 4.142 4.775l-.021.047.14.672.042.03c.038.241.065.491.08.75l-.036.04v.664l.044.047c-.015.65-.085 1.174-.27 1.75l-.051.031-.27.668.028.05c-.306.682-.768 1.5-1.456 2.66C19.774 24.906 18.5 27.5 18.5 27.5l-.073.067H13.56l-.06-.067s-1.274-2.593-2.978-5.467c-.688-1.159-1.15-1.977-1.456-2.658l.024-.05-.274-.665-.042-.035c-.186-.576-.256-1.1-.27-1.75l.039-.035v-.664l-.031-.051c.014-.26.04-.51.079-.75l.038-.027.145-.688-.022-.035c.738-2.681 2.918-4.022 4.142-4.775L13 9.785c1.012-.624.809-1.629.455-3.33Z"/><path fill="#8C5543" d="M12.75 2a1 1 0 1 0 0 2h6.5a1 1 0 1 0 0-2h-6.5ZM13.5 27.5h5l1 1.5c.5.75 0 1-.5 1h-6c-.5 0-1-.25-.5-1l1-1.5Z"/><path fill="#6D4534" d="M23.248 14.625H21a.375.375 0 0 0-.375.375v1.5c0 .207.168.375.375.375h2.497c.002-.095.003-.192.003-.292 0-.156-.004-.309-.012-.458h-2.113v-.75h2.034a6.808 6.808 0 0 0-.161-.75Z"/><path fill="#6D4534" d="M23.227 18.625h-3.352V15a.375.375 0 0 0-.375-.375H14a.375.375 0 0 0-.375.375v1.5c0 .207.168.375.375.375h3.125v1.75h-4.25V15a.375.375 0 0 0-.375-.375H8.752c-.066.24-.12.489-.161.75h3.534V19c0 .207.168.375.375.375h5a.375.375 0 0 0 .375-.375v-2.5a.375.375 0 0 0-.375-.375h-3.125v-.75h4.75V19c0 .207.168.375.375.375h3.434c.12-.267.216-.513.293-.75Z"/><path fill="#6D4534" d="M9.066 19.375H10.5a.375.375 0 0 0 .375-.375v-2.5a.375.375 0 0 0-.375-.375H8.512c-.008.15-.012.302-.012.458 0 .1.001.198.003.292h1.622v1.75H8.774c.076.237.172.483.292.75Z"/></svg>
